icons/desktop/32/baseball-32.svg

<svg width="32" height="32" viewBox="0 0 32 32" fill="none" xmlns="http://www.w3.org/2000/svg">
<path fill-rule="evenodd" clip-rule="evenodd" d="M16 2C23.732 2 30 8.26801 30 16C30 23.732 23.732 30 16 30C8.26801 30 2 23.732 2 16C2 8.26801 8.26801 2 16 2ZM16 4.5C13.1411 4.5 10.5273 5.54494 8.51562 7.27148C11.2964 9.26123 13.0009 12.4877 13.001 16.0078C13.001 19.5354 11.2996 22.7499 8.52637 24.7363C10.5367 26.4577 13.1458 27.5 16 27.5C18.8589 27.5 21.4717 26.454 23.4834 24.7275C20.7036 22.7377 19 19.5116 19 15.9922C19 12.4643 20.7003 9.24938 23.4736 7.2627C21.4634 5.54155 18.8539 4.5 16 4.5ZM6.78516 9.11719C5.34951 11.0362 4.5 13.4191 4.5 16C4.5 18.5854 5.35279 20.9719 6.79297 22.8926C9.08218 21.3849 10.5 18.816 10.5 16.0078C10.5 13.2062 9.08006 10.6266 6.78516 9.11719ZM25.2061 9.10645C22.9169 10.6147 21.5 13.1849 21.5 15.9922C21.5 18.7925 22.9196 21.3721 25.2139 22.8818C26.6494 20.9629 27.5 18.5809 27.5 16C27.5 13.4141 26.6467 11.0273 25.2061 9.10645Z" fill="black"/>
</svg>

<!-- This Source Code Form is subject to the terms of the Mozilla Public
   - License, v. 2.0. If a copy of the MPL was not distributed with this
   - file, You can obtain one at http://mozilla.org/MPL/2.0/. -->
<svg xmlns="http://www.w3.org/2000/svg" width="32" height="32" fill="context-fill" fill-opacity="context-fill-opacity" viewBox="0 0 32 32">
    <path fill-rule="evenodd" d="M16 2c7.732 0 14 6.268 14 14s-6.268 14-14 14S2 23.732 2 16 8.268 2 16 2m0 2.5a11.45 11.45 0 0 0-7.484 2.771A10.73 10.73 0 0 1 13 16.008c0 3.527-1.701 6.742-4.475 8.728A11.45 11.45 0 0 0 16 27.5c2.859 0 5.472-1.046 7.483-2.773A10.73 10.73 0 0 1 19 15.993c0-3.528 1.7-6.743 4.474-8.73A11.45 11.45 0 0 0 16 4.5M6.785 9.117A11.45 11.45 0 0 0 4.5 16c0 2.585.853 4.972 2.293 6.893a8.24 8.24 0 0 0 3.707-6.885 8.25 8.25 0 0 0-3.715-6.89m18.421-.01a8.24 8.24 0 0 0-3.706 6.885c0 2.8 1.42 5.38 3.714 6.89A11.45 11.45 0 0 0 27.5 16a11.45 11.45 0 0 0-2.294-6.894" clip-rule="evenodd" />
</svg>
